X:80
T:Paynes 1st Set Of Quadrilles No.5. Le4.080
B:L.Leadley MS#4 c1850
Z:Village Music Project, 2016 Steve Mansfield
M:2/4
L:1/8
Q:2/4=50
K:D
A | FE/F/ DF | FE/F/ DA | ddee | (f2d) A |
FE/F/ FE/F/ | FE/F/ DA | dd e/d/e/f/ | d2 z ||
f | (e/d/)(e/f/) gg | (f/e/)(f/g/) ad | c(a/b/) ad | ca/b/ af |
(e/d/)(e/f/) gg | (f/e/)(f/g/) ad | cbae | e2 d |]

